svgs/light/bread-loaf.svg

<svg xmlns="http://www.w3.org/2000/svg" viewBox="0 0 640 512"><!-- Font Awesome Pro 5.15.3 by @fontawesome - https://fontawesome.com License - https://fontawesome.com/license (Commercial License) --><path d="M400 32H240C107.45 32 0 103.63 0 192c0 35.35 30.86 64 64 64v192a32 32 0 0 0 32 32h448a32 32 0 0 0 32-32V256c33.14 0 64-28.65 64-64 0-88.37-107.45-160-240-160zm-16 416H96V224H64c-15.44 0-32-14.36-32-32 0-69.38 95.25-128 208-128s208 58.62 208 128c0 17.64-12.56 32-28 32h-36zm160 0H416V256h128zm36-224H471.68a66.61 66.61 0 0 0 8.32-32c0-52.43-38-98.82-96.44-128H400c112.75 0 208 58.62 208 128 0 17.64-12.56 32-28 32z"/></svg>

<svg xmlns="http://www.w3.org/2000/svg" viewBox="0 0 640 512"><!--! Font Awesome Pro 6.0.0 by @fontawesome - https://fontawesome.com License - https://fontawesome.com/license (Commercial License) Copyright 2022 Fonticons, Inc. --><path d="M400 32h-160C107.5 32 0 103.6 0 192c0 35.38 30.88 64 64 64v192c0 17.62 14.38 32 32 32h448c17.62 0 32-14.38 32-32V256c33.13 0 64-28.62 64-64C640 103.6 532.5 32 400 32zM384 240V448H96V240C96 231.2 88.84 224 80 224H64C48.5 224 32 209.6 32 192c0-69.38 95.25-128 208-128S448 122.6 448 192c0 17.62-12.5 32-28 32H400C391.2 224 384 231.2 384 240zM544 448h-128V256h128V448zM580 224h-108.4C477.1 214.3 480 203.3 480 192c0-52.38-38-98.88-96.5-128H400C512.8 64 608 122.6 608 192C608 209.6 595.5 224 580 224z"/></svg>
